X:1
T:Nine sili nebsnije
T:Nine sili nebsnija
T:Aleksandr Sjeremetev
C:Aleksandr Sjeremetev
%%score [ ( 1 2 ) ( 3 4 ) ]
L:1/8
Q:1/4=40
M:4/4
K:D
V:1 treble nm="Soprano/Alto"
V:2 treble 
V:3 bass nm="Tenor/Bass"
V:4 bass 
V:1
"^Largo"!p! (F4 E2) F2 |!<(! G4!>(! G2!<)! E2!>)! | F8 | E4 E4 | !>!D4!pp! D4 | E4!<(! (C4 | %6
w: Ni- * ne|si- li ne-|bes-|ni- ja|s~na- mi|ne- vi-|
 F4)!<)!!>(! (!^!F4 | E2)!>)! D2!pp! C4- | C8 | !fermata!C8 ||!mf! [CF^A]4!<(! [CFA]4 | %11
w: * di-|* mo slu-||zjat,|Se bo|
 [DFB]6 [DFB]2!<)! |!mf! [DGB]4 [DGB]4 | [DFAd]6 [DFAd]2 |!f! [DFBd]8 | [CF^Ac]6 [CFAc]2 | %16
w: fho- dit,|se bo|fho- dit|Tsar|sla- vi,|
 [EGBe]8 |!ff! [EG=ce]6 [EGce]2 | ([^GBe]4!>(! [EGB]2 [B,EG]2)!>)! | %19
w: Tsar|sla- vi,|Tsar _ _|
"^rit."!mf! [=CEA]4!pp! [B,^DA]4 |"^Tempo I" ([B,^G]4 [A,F]2 [B,G]2) | (!>![DB]4 [=CA]4) | %22
w: sla- vi,|se _ _|zjert- *|
!<(! ^G8!<)! | [CE^G]4!pp!!<(! [C^DF]2 [CEG]2!<)! | (!>![^GB]4 [FA]2) [EG]2 | ^G4 ^^F2!pp! G G | %26
w: va|taj- na- ja|so- * ver-|sjen- na do- ri-|
 [EA]4 [^DA]4 | !fermata![E^G]6 z2 |!ppp! E4 [DE]4 | [DE]4 E4 | !fermata!E8 || %31
w: no- sit-|sja,|do- ri-|no- sit-|sja.|
[Q:1/4=50]"^Moderato"!mf! [=c-e]8 | [ce]4 [Bd]4 | [EAc]4 [D^GB]2 [DGB]2 | %34
w: Ve-|* ro-|ju i lju-|
"^dim." [CFA]3 [CFA] [C^E^G]2 [CEG]2 |!p!!<(! [CFA]4 [E^GB]4!<)! |"^cresc." [EAc]4 [F^Ac]4 | %37
w: bo- vi- ju pri-|stu- pim,|da pri-|
 [DFBd]4!f! [DFBd]2 [DFBd]2 | ([Bd]4!>(! [Ac]2) [Ac]2!>)! |"^dim." [DB]8 |!p! [E^GB]4 [EGB]4 | %41
w: tsjas- tni- tsi|zjiz- * ni|vetsj-|ni- ja|
 [CEA]8 | !fermata![CEA]4 z4 ||!p! (F4!<(! E2) F2!<)! |!>(! (A4 G4)!>)! |!<(!!>(! F8!<)!!>)! | %46
w: bu-|dem.|Al- * li-|lui- *|ja,|
!p! (F4!<(! E2) F2!<)! |!p! ([FA]4 [EG]2) [DF]2 |!pp! (F4 ^E2) F2 | !>![DG]4!ppp! G4 | %50
w: al- * li-|lui- * ja,|al- * li-|lu- i-|
 !fermata!F6 z2 |] %51
w: ja.|
V:2
 D6 D2 | D4 D2 D2 | D8 | C4 C4 | C4 B,4 | C4 (^A,4 | C4) (B,4 | ^A,2) B,2 (=A,4 | C8) | C8 || x8 | %11
 x8 | x8 | x8 | x8 | x8 | x8 | x8 | x8 | x8 | E8 | E8 | (([B,E]4!>(! [^B,F]4))!>)! | x8 | C6 C2 | %25
 E4 E2 E E | =C4 B,4 | B,6 x2 | B,4 B,4 | B,4 =C4 | B,8 || E8- | E4 E4 | x8 | x8 | x8 | x8 | x8 | %38
 E6 E2 | (A4 ^G2 F2) | D4 D4 | x8 | x8 || D6 D2 | D8 | ((D4 E4)) | (D4 C2) D2 | B,6 B,2 | D6 D2 | %49
 _B,4 C4 | D6 x2 |] %51
V:3
 (A,4 G,2) A,2 | B,4 ^A,2 A,2 | A,8 | A,4 G,4 | F,4 F,4 | G,4 (F,4 | ^A,4) F,4- | F,2 F,2 ((F,4 | %8
 F,2) ^E,6) | !fermata![F,,C,F,^A,]8 || [F,,C,F,]4 [F,,C,F,]4 | [B,,F,B,]6 [B,,F,B,]2 | %12
 [G,,D,G,]4 [G,,D,G,]4 | [D,,A,,D,A,]6 [D,,A,,D,A,]2 | ([B,,,B,,]2 [C,,C,]2 [D,,D,]2 [E,,E,]2) | %15
 [F,,C,F,]6 [F,,C,F,]2 | ([E,,E,]2 [F,,F,]2 [G,,G,]2 [E,,E,]2) | [=C,,G,,=C,=C]6 [C,,G,,C,C]2 | %18
 [B,,,B,,B,]8 | A,4 F,4 | [E,,E,]8 | [A,,,A,,E,]8 | ([E,,E,]4 [^D,,^D,]4) | %23
 [C,,C,]4 [C,,C,]2 [C,,C,]2 | [A,,A,]6 [^A,,^A,]2 | B,4 ^A,2 B, B, | A,4 F,4 | %27
 !fermata![E,,B,,E,]6 z2 | ^G,4 E,4 | E,4 [E,A,]4 | !fermata![E,,B,,E,^G,]8 || (A,4 E,4 | %32
 F,2 E,2) (F,2 ^G,2) | [A,,A,]4 [B,,B,]2 [B,,,B,,]2 | [C,,C,]3 [C,,C,] [C,,C,]2 [C,,C,]2 | %35
 [F,,F,]4 [E,,E,]4 | [A,,A,]4 [F,,F,]4 | ([B,,,B,,]2 [C,,C,]2) [D,,D,]2 [B,,,B,,]2 | %38
 ([^G,,^G,]4 [A,,A,]2) [A,,A,]2 | [E,,E,]8 | [E,,E,]4 [E,,E,]4 | [A,,E,A,]8 | %42
 !fermata![A,,E,A,]4 z4 || %43
"_\n\nNotene våre er som i førsteutgaven fra 1902. \nBildet av komponisten er fra 1903." (A,4 G,2) A,2 | %44
 (=C4 _B,4) | (A,4 ^A,4) | B,6 B,2 | [G,,G,]6 [^G,,^G,]2 | (A,4 ^G,2) A,2 | G,4 [E,A,]4 | A,6 z2 |] %51
V:4
 [D,,D,]6 [D,,D,]2 | [D,,D,]4 [D,,D,]2 [D,,D,]2 | ([D,,D,]4 [F,,F,]4) | A,,4 ^A,,4 | B,,4 B,,4 | %5
 [E,,E,]4 ([F,,F,]4 | [E,,E,]4) ([D,,D,]4 | [C,,C,]2) [B,,,B,,]2 ([C,,C,]4 | [C,,C,]8) | x8 || x8 | %11
 x8 | x8 | x8 | x8 | x8 | x8 | x8 | x8 | [B,,,B,,]4 [B,,,B,,]4 | x8 | x8 | x8 | x8 | x8 | %25
 B,,4 [B,,,B,,]2 [B,,,B,,] [B,,,B,,] | [B,,,B,,]4 [B,,,B,,]4 | x8 | [E,,E,]4 ^G,,4 | A,,4 A,,4 | %30
 x8 || A,,8- | A,,4 A,,4 | x8 | x8 | x8 | x8 | x8 | x8 | x8 | x8 | x8 | x8 || [D,,D,]6 [D,,D,]2 | %44
 [G,,D,]8 | ([D,,D,]4 [C,,C,]4) | [B,,,B,,]6 [B,,,B,,]2 | x8 | A,,4 A,,4 | A,,4 A,,4 | %50
 !fermata![D,,A,,D,]6 x2 |] %51

